Adwaita++-Light/panel/24/slack-indicator-highlight.svg

<svg height="24" width="24" xmlns="http://www.w3.org/2000/svg">
  <g fill="#4285f4">
    <circle cx="17" cy="7" r="2"/>
    <path d="m9.5 5c-.825582 0-1.5.674419-1.5 1.5 0 .8255815.674418 1.5 1.5 1.5h1.5v-1.5c0-.825581-.674419-1.5-1.5-1.5zm4.001953 0c-.825581 0-1.5.6732269-1.5 1.4980469v4.0039061c0 .82482.674419 1.498047 1.5 1.498047.825583 0 1.5-.673227 1.5-1.498047v-1.267578a3 3 0 0 1 -1.001953-2.234375 3 3 0 0 1 .482422-1.6269531c-.263748-.2295595-.604878-.3730469-.980469-.3730469zm-8.0039061 4c-.82482 0-1.4980469.674419-1.4980469 1.5s.6732269 1.5 1.4980469 1.5h4.0039062c.8248199 0 1.4980469-.674419 1.4980469-1.5s-.673227-1.5-1.4980469-1.5zm13.1289061.519531a3 3 0 0 1 -1.626953.480469 3 3 0 0 1 -.855469-.126953c-.089114.19153-.142578.402593-.142578.626953v1.5h1.5c.82558 0 1.5-.674419 1.5-1.5 0-.375874-.144789-.716643-.375-.980469zm-13.126953 3.480469c-.825581 0-1.5.674419-1.5 1.5 0 .825582.674419 1.5 1.5 1.5.825582 0 1.5-.674418 1.5-1.5v-1.5zm4 0c-.825581 0-1.5.673227-1.5 1.498047v4.003906c0 .82482.674419 1.498047 1.5 1.498047s1.5-.673227 1.5-1.498047v-4.003906c0-.82482-.674419-1.498047-1.5-1.498047zm3.998047 0c-.824821 0-1.498047.674419-1.498047 1.5s.673227 1.5 1.498047 1.5h4.003906c.824819 0 1.498047-.674419 1.498047-1.5s-.673228-1.5-1.498047-1.5zm-1.498047 4v1.5c0 .825581.674419 1.5 1.5 1.5.825582 0 1.5-.674419 1.5-1.5s-.674418-1.5-1.5-1.5z"/>
  </g>
</svg>

<svg xmlns="http://www.w3.org/2000/svg" width="24" height="24" version="1.1">
 <defs>
  <style id="current-color-scheme" type="text/css">
   .ColorScheme-Text { color:#444444; } .ColorScheme-Highlight { color:#4285f4; }
  </style>
 </defs>
 <circle style="fill:currentColor" class="ColorScheme-Highlight" cx="17" cy="7" r="2"/>
 <path style="fill:currentColor" class="ColorScheme-Highlight" d="M 9.5,5 C 8.674418,5 8,5.674419 8,6.5 8,7.3255815 8.674418,8 9.5,8 H 11 V 6.5 C 11,5.674419 10.325581,5 9.5,5 Z m 4.001953,0 c -0.825581,0 -1.5,0.6732269 -1.5,1.4980469 v 4.0039061 c 0,0.82482 0.674419,1.498047 1.5,1.498047 0.825583,0 1.5,-0.673227 1.5,-1.498047 V 9.234375 A 3,3 0 0 1 14,7 3,3 0 0 1 14.482422,5.3730469 C 14.218674,5.1434874 13.877544,5 13.501953,5 Z M 5.4980469,9 C 4.6732269,9 4,9.674419 4,10.5 4,11.325581 4.6732269,12 5.4980469,12 H 9.5019531 C 10.326773,12 11,11.325581 11,10.5 11,9.674419 10.326773,9 9.5019531,9 Z M 18.626953,9.519531 A 3,3 0 0 1 17,10 3,3 0 0 1 16.144531,9.873047 C 16.055417,10.064577 16.001953,10.27564 16.001953,10.5 V 12 h 1.5 c 0.82558,0 1.5,-0.674419 1.5,-1.5 0,-0.375874 -0.144789,-0.716643 -0.375,-0.980469 z M 5.5,13 C 4.674419,13 4,13.674419 4,14.5 4,15.325582 4.674419,16 5.5,16 6.325582,16 7,15.325582 7,14.5 V 13 Z m 4,0 C 8.674419,13 8,13.673227 8,14.498047 v 4.003906 C 8,19.326773 8.674419,20 9.5,20 10.325581,20 11,19.326773 11,18.501953 V 14.498047 C 11,13.673227 10.325581,13 9.5,13 Z m 3.998047,0 C 12.673226,13 12,13.674419 12,14.5 c 0,0.825581 0.673227,1.5 1.498047,1.5 h 4.003906 C 18.326772,16 19,15.325581 19,14.5 19,13.674419 18.326772,13 17.501953,13 Z M 12,17 v 1.5 C 12,19.325581 12.674419,20 13.5,20 14.325582,20 15,19.325581 15,18.5 15,17.674419 14.325582,17 13.5,17 Z"/>
</svg>
